X: 35
T:Nutting Girl - Field Town
N:Tune as played for Grand Union Morris
N:www.grandunionmorris.co.uk
M:4/4
L:1/8
Q:150
K:G
"A"B>A | G2 G>A B>A G>B | d2 c2 A2 F2 | G2 B>c d2 g2 | d4 d3 B | c>d e>c
 A2 B>c | B>c d>B G2 A>B | c2 A2 G2 F2 | G4 G3 || "B" B>A | G2 g2 g>e f>
g | f>e d2 d2 B>c | d2 e>f g>f  f>e | f4 f3 e | d2 g2 g3   f | e2 d2 d3
B | A2 B2 c2 d2 | e>f g>e d>c B>A  | G2 G>A B>A G>B | d2 c2 A2 F2 | G2 B
>c d2 g2 | d4 d3 B | c>d e>c A2 B>c | B>c d>B G2 A>B | c2 A2 G2 F2 | G4
G3 || "C" B>A | G4 G3 a | B3 A G3 B | d4 c4 | A4 F4 | G4 B3 c | d4 g4 |
d4 d4 | d4 B4  | c>d e>c A2 B>c | B>c d>B G2 A>B | c2 A2 G2 F2 | G4 G3
